storage/app/icons/phosphoricons/duotone/not-member-of-duotone.svg

<svg xmlns="http://www.w3.org/2000/svg" fill="currentColor" viewBox="0 0 256 256"><path d="M200 48v160h-72a80 80 0 0 1-80-80 80 80 0 0 1 80-80Z" opacity=".2"/><path d="M213.38 34.08a8 8 0 0 0-11.3.54L197.19 40H128a88 88 0 0 0-64.84 147.43l-21.08 23.19a8 8 0 1 0 11.84 10.76L75 198.2a87.5 87.5 0 0 0 53 17.8h72a8 8 0 0 0 0-16h-72a71.63 71.63 0 0 1-42.18-13.7l45.72-50.3H200a8 8 0 0 0 0-16h-53.92l67.84-74.62a8 8 0 0 0-.54-11.3M74 175.53A71.7 71.7 0 0 1 56.46 136h53.46ZM56.46 120A72.08 72.08 0 0 1 128 56h54.64l-58.18 64Z"/></svg>

<svg xmlns="http://www.w3.org/2000/svg" viewBox="0 0 256 256" fill="currentColor"><path d="M200,48V208H128a80,80,0,0,1-80-80h0a80,80,0,0,1,80-80Z" opacity="0.2"/><path d="M213.38,34.08a8,8,0,0,0-11.3.54L197.19,40H128A88,88,0,0,0,63.16,187.43L42.08,210.62a8,8,0,1,0,11.84,10.76L75,198.2A87.5,87.5,0,0,0,128,216h72a8,8,0,0,0,0-16H128a71.63,71.63,0,0,1-42.18-13.7L131.54,136H200a8,8,0,0,0,0-16H146.08l67.84-74.62A8,8,0,0,0,213.38,34.08ZM74,175.53A71.69,71.69,0,0,1,56.46,136h53.46ZM56.46,120A72.08,72.08,0,0,1,128,56h54.64l-58.18,64Z"/></svg>
